lib/brands/icons/salesforce.svg

<svg xmlns="http://www.w3.org/2000/svg" fill="none" aria-hidden="true" viewBox="0 0 48 48"><g id="salesforce-Icon"><g id="Group"><path id="Vector" fill="#00A1E0" fill-rule="evenodd" d="M20.6457 13.0545C21.9354 11.711 23.7321 10.8768 25.7182 10.8768C28.3583 10.8768 30.6624 12.3493 31.8891 14.5353C32.9866 14.0451 34.1754 13.7924 35.3775 13.7938C40.1398 13.7938 44 17.6882 44 22.4929C44 27.2976 40.1398 31.192 35.3775 31.192C34.7952 31.192 34.2274 31.1338 33.6784 31.0231C32.5982 32.9493 30.5386 34.2512 28.1759 34.2512C27.1868 34.2512 26.251 34.0237 25.4185 33.6164C24.3231 36.1931 21.7713 37.999 18.7978 37.999C15.7014 37.999 13.0618 36.0391 12.049 33.2914C11.5978 33.3866 11.1378 33.4346 10.6767 33.4344C6.98924 33.4349 4.00002 30.4146 4.00002 26.6887C3.99725 25.5079 4.30403 24.347 4.88977 23.3218C5.47551 22.2965 6.31976 21.4427 7.33834 20.8454C6.91577 19.8717 6.69835 18.8214 6.69964 17.7599C6.69964 13.4745 10.178 10.001 14.4687 10.001C15.6639 9.99959 16.8434 10.2745 17.9149 10.8041C18.9864 11.3338 19.921 12.104 20.6457 13.0545Z" clip-rule="evenodd"/><path id="Vector_2" fill="white" fill-rule="evenodd" d="M9.79401 24.5205L9.95587 24.0712C9.98168 23.9942 10.0399 24.0196 10.0635 24.034C10.1085 24.0607 10.1409 24.0847 10.1991 24.1189C10.6759 24.4203 11.1178 24.4233 11.2556 24.4233C11.6126 24.4233 11.8339 24.2344 11.8339 23.9793V23.9662C11.8339 23.6888 11.4927 23.5838 11.0985 23.4631L11.011 23.4351C10.4699 23.2811 9.89112 23.0584 9.89112 22.3734V22.3594C9.89112 21.7093 10.4156 21.2556 11.1663 21.2556L11.2486 21.2548C11.6896 21.2548 12.1157 21.3829 12.4245 21.5702C12.4525 21.5877 12.4796 21.62 12.4639 21.6629L12.2976 22.1122C12.2683 22.1888 12.1883 22.138 12.1883 22.138C11.866 21.9701 11.5095 21.8786 11.1462 21.8707C10.8277 21.8707 10.623 22.0396 10.623 22.2688V22.2832C10.623 22.5505 10.9739 22.6647 11.3807 22.7973L11.4507 22.8191C11.9901 22.9898 12.5658 23.226 12.5658 23.8756V23.8892C12.5658 24.5913 12.0557 25.0275 11.2355 25.0275C10.8326 25.0275 10.4471 24.9654 10.0394 24.7488C9.96243 24.7042 9.88631 24.6657 9.81107 24.611C9.80319 24.5996 9.76863 24.5861 9.79357 24.5205H9.79401ZM21.8056 24.5205L21.9679 24.0712C21.9915 23.9977 22.0602 24.0248 22.0751 24.034C22.1197 24.0616 22.1529 24.0847 22.2107 24.1189C22.6884 24.4203 23.1294 24.4233 23.2685 24.4233C23.6242 24.4233 23.8459 24.2344 23.8459 23.9793V23.9662C23.8459 23.6888 23.5052 23.5838 23.111 23.4631L23.0235 23.4351C22.4815 23.2811 21.9027 23.0584 21.9027 22.3734V22.3594C21.9027 21.7093 22.4277 21.2556 23.1784 21.2556L23.2602 21.2548C23.7011 21.2548 24.1277 21.3829 24.437 21.5702C24.4641 21.5877 24.4917 21.62 24.4763 21.6629C24.461 21.7027 24.3245 22.0702 24.3101 22.1122C24.2799 22.1888 24.2007 22.138 24.2007 22.138C23.8784 21.97 23.5217 21.8786 23.1582 21.8707C22.8398 21.8707 22.635 22.0396 22.635 22.2688V22.2832C22.635 22.5505 22.9854 22.6647 23.3927 22.7973L23.4627 22.8191C24.0021 22.9898 24.5774 23.226 24.5774 23.8756V23.8892C24.5774 24.5913 24.0677 25.0275 23.2475 25.0275C22.8441 25.0275 22.4587 24.9654 22.0515 24.7488C21.9745 24.7042 21.8983 24.6657 21.8227 24.611C21.8148 24.5996 21.7802 24.5861 21.8056 24.5205V24.5205ZM30.6906 22.4079C30.758 22.6337 30.7912 22.8817 30.7912 23.1437C30.7912 23.4062 30.758 23.6534 30.6906 23.8791C30.629 24.0968 30.5233 24.2995 30.38 24.4745C30.2364 24.6446 30.0564 24.78 29.8533 24.8709C29.6433 24.9671 29.3966 25.0152 29.1192 25.0152C28.8418 25.0152 28.5942 24.9671 28.3851 24.8709C28.182 24.78 28.002 24.6446 27.8584 24.4745C27.7153 24.2995 27.6094 24.097 27.5474 23.8796C27.4786 23.6404 27.4447 23.3926 27.4468 23.1437C27.4468 22.8813 27.4804 22.6337 27.5474 22.4079C27.6147 22.1804 27.7193 21.9801 27.858 21.813C28.0019 21.6423 28.1819 21.5057 28.3851 21.4131C28.5947 21.3151 28.841 21.2657 29.1192 21.2657C29.3974 21.2657 29.6437 21.3151 29.8533 21.4131C30.0624 21.5107 30.24 21.645 30.38 21.813C30.5191 21.9801 30.6241 22.1804 30.6906 22.4079ZM30.0064 23.1437C30.0064 22.747 29.9329 22.435 29.7868 22.2163C29.6424 21.9993 29.4237 21.8943 29.1192 21.8943C28.8147 21.8943 28.5977 21.9993 28.4551 22.2163C28.3121 22.435 28.239 22.747 28.239 23.1437C28.239 23.5401 28.3121 23.8542 28.456 24.0747C28.5977 24.2943 28.8147 24.4006 29.1192 24.4006C29.4237 24.4006 29.6424 24.2939 29.7868 24.0747C29.932 23.8542 30.0064 23.5401 30.0064 23.1437V23.1437ZM36.3156 24.2943L36.4836 24.7589C36.5054 24.8158 36.456 24.8407 36.456 24.8407C36.1966 24.9413 35.8365 25.0131 35.4861 25.0131C34.892 25.0131 34.4371 24.842 34.1335 24.5043C33.8316 24.1674 33.6776 23.7094 33.6776 23.1411C33.6776 22.8782 33.7157 22.6293 33.7901 22.404C33.8644 22.1765 33.976 21.9761 34.123 21.809C34.2756 21.6372 34.4639 21.5008 34.6746 21.4092C34.8934 21.3116 35.1506 21.2626 35.4376 21.2626C35.6314 21.2626 35.8037 21.2744 35.9516 21.2963C36.1095 21.3208 36.3199 21.3777 36.4087 21.4122C36.4249 21.4184 36.47 21.4402 36.4516 21.4932C36.3869 21.6756 36.3427 21.7946 36.2828 21.9608C36.2565 22.0317 36.2031 22.0081 36.2031 22.0081C35.9778 21.9372 35.7617 21.9048 35.4796 21.9048C35.1405 21.9048 34.8859 22.0177 34.7197 22.2386C34.5517 22.4613 34.4576 22.7531 34.4563 23.1411C34.455 23.5668 34.5618 23.8822 34.7507 24.0773C34.9393 24.272 35.2026 24.3704 35.5342 24.3704C35.6685 24.3704 35.7954 24.3617 35.9096 24.3437C36.0225 24.3258 36.1283 24.2908 36.2281 24.2519C36.2281 24.2519 36.2924 24.2278 36.3156 24.2943ZM39.8197 22.2789C39.9689 22.8012 39.891 23.2522 39.8884 23.2772C39.8827 23.3367 39.8214 23.3375 39.8214 23.3375L37.5033 23.3358C37.5177 23.688 37.6022 23.9373 37.7728 24.1066C37.9403 24.2724 38.2063 24.3787 38.5663 24.3792C39.1167 24.3805 39.3516 24.2698 39.5183 24.2081C39.5183 24.2081 39.5817 24.1854 39.6058 24.2484L39.7567 24.6731C39.7873 24.7444 39.7628 24.7694 39.737 24.7838C39.5918 24.8639 39.2396 25.0135 38.5694 25.0152C38.2444 25.0166 37.9613 24.9702 37.7282 24.8796C37.5066 24.7976 37.307 24.6653 37.145 24.4933C36.9902 24.3246 36.8752 24.1232 36.8086 23.9041C36.7368 23.664 36.7016 23.4145 36.704 23.1639C36.704 22.9014 36.7377 22.652 36.8055 22.4241C36.8733 22.1944 36.9788 21.9919 37.1192 21.8217C37.2647 21.648 37.4472 21.509 37.6533 21.4149C37.866 21.3147 38.1293 21.2657 38.4189 21.2657C38.667 21.2657 38.8936 21.3191 39.0821 21.4004C39.2274 21.4626 39.3735 21.575 39.5231 21.736C39.6176 21.8375 39.7615 22.0597 39.8197 22.2789V22.2789ZM37.5142 22.7632H39.1679C39.1508 22.5505 39.1092 22.3598 39.0139 22.2163C38.8686 21.9993 38.6683 21.8799 38.3642 21.8799C38.0598 21.8799 37.8436 21.9993 37.7006 22.2163C37.607 22.3598 37.5466 22.5427 37.5138 22.7632H37.5142ZM21.2513 22.2789C21.4001 22.8012 21.3235 23.2522 21.3209 23.2772C21.3148 23.3367 21.2535 23.3375 21.2535 23.3375L18.9349 23.3358C18.9498 23.688 19.0338 23.9373 19.2048 24.1066C19.3724 24.2724 19.6379 24.3787 19.998 24.3792C20.5483 24.3805 20.7841 24.2698 20.9503 24.2081C20.9503 24.2081 21.0138 24.1854 21.0374 24.2484L21.1888 24.6731C21.2194 24.7444 21.1949 24.7694 21.1695 24.7838C21.0234 24.8639 20.6708 25.0135 20.0015 25.0152C19.676 25.0166 19.393 24.9702 19.1602 24.8796C18.9386 24.7974 18.7389 24.6653 18.5766 24.4933C18.4222 24.3244 18.3076 24.1231 18.2411 23.9041C18.1688 23.6641 18.1333 23.4145 18.1357 23.1639C18.1357 22.9014 18.1698 22.652 18.2372 22.4241C18.3002 22.2042 18.407 21.9993 18.5513 21.8217C18.6968 21.6482 18.8791 21.5092 19.085 21.4149C19.2985 21.3147 19.5618 21.2657 19.8505 21.2657C20.0787 21.2652 20.3047 21.311 20.5146 21.4004C20.6599 21.4626 20.806 21.575 20.9552 21.736C21.0496 21.8375 21.1936 22.0597 21.2513 22.2789V22.2789ZM18.9454 22.7632H20.5999C20.5824 22.5505 20.5409 22.3598 20.4459 22.2163C20.3016 21.9993 20.1003 21.8799 19.7963 21.8799C19.4918 21.8799 19.2753 21.9993 19.1331 22.2163C19.0386 22.3598 18.9787 22.5427 18.945 22.7632H18.9454ZM14.8568 22.6525C14.8568 22.6525 15.0397 22.6687 15.2392 22.6975V22.5995C15.2392 22.2902 15.1749 22.1446 15.0484 22.047C14.919 21.9481 14.7256 21.897 14.4754 21.897C14.4754 21.897 13.911 21.89 13.4648 22.1323C13.4442 22.1446 13.4272 22.1516 13.4272 22.1516C13.4272 22.1516 13.3712 22.1713 13.3511 22.1139L13.187 21.673C13.1616 21.6095 13.2076 21.5807 13.2076 21.5807C13.4162 21.4179 13.922 21.3195 13.922 21.3195C14.1273 21.2834 14.3352 21.2643 14.5436 21.2622C15.0064 21.2622 15.3647 21.3698 15.6084 21.5829C15.8525 21.7968 15.9768 22.1415 15.9768 22.6061L15.9781 24.7269C15.9781 24.7269 15.9829 24.7882 15.9247 24.8022C15.9247 24.8022 15.8394 24.8258 15.7628 24.8438C15.6854 24.8617 15.4063 24.9186 15.1784 24.9571C14.9456 24.9961 14.71 25.0157 14.474 25.0157C14.2488 25.0157 14.0423 24.9947 13.8603 24.9531C13.6907 24.9176 13.5301 24.8479 13.3882 24.7484C13.259 24.6545 13.1552 24.5299 13.0864 24.3857C13.0151 24.24 12.9792 24.062 12.9792 23.8564C12.9792 23.6547 13.0217 23.4749 13.1035 23.3218C13.1857 23.1696 13.2986 23.0405 13.4403 22.9395C13.5867 22.8364 13.7505 22.7603 13.9237 22.715C14.1044 22.6669 14.2964 22.642 14.495 22.642C14.6407 22.642 14.7623 22.645 14.8568 22.6525V22.6525ZM13.9342 24.2816C13.9329 24.2812 14.142 24.4457 14.614 24.4168C14.9456 24.3967 15.2396 24.3337 15.2396 24.3337V23.2794C15.2396 23.2794 14.943 23.2308 14.6101 23.226C14.1381 23.2203 13.9368 23.394 13.9381 23.3935C13.799 23.4924 13.7312 23.639 13.7312 23.8419C13.7312 23.9719 13.7544 24.0734 13.8012 24.1442C13.8305 24.1911 13.8432 24.2085 13.9342 24.2816V24.2816ZM33.5569 21.4577C33.535 21.5212 33.4226 21.8388 33.3819 21.9442C33.367 21.9845 33.3425 22.012 33.2975 22.0072C33.2975 22.0072 33.1645 21.9766 33.0429 21.9766C32.9593 21.9766 32.8399 21.9871 32.7323 22.0203C32.6243 22.0535 32.5261 22.1125 32.4462 22.1923C32.3613 22.2741 32.2926 22.3891 32.2427 22.5335C32.192 22.6787 32.1657 22.9097 32.1657 23.1416V24.8687C32.1658 24.8779 32.164 24.8871 32.1605 24.8956C32.157 24.9042 32.1519 24.9119 32.1454 24.9185C32.1389 24.925 32.1311 24.9302 32.1226 24.9338C32.1141 24.9373 32.105 24.9391 32.0957 24.9391H31.4872C31.4779 24.9392 31.4687 24.9375 31.46 24.9341C31.4514 24.9306 31.4435 24.9255 31.4368 24.919C31.4302 24.9125 31.4249 24.9047 31.4212 24.8962C31.4175 24.8876 31.4156 24.8784 31.4155 24.8691V21.4109C31.4155 21.372 31.4439 21.3409 31.4828 21.3409H32.0765C32.1159 21.3409 32.1439 21.372 32.1439 21.4109V21.6935C32.2327 21.5745 32.3919 21.4696 32.5358 21.4048C32.6802 21.3392 32.8416 21.2911 33.1334 21.3086C33.2852 21.3178 33.4825 21.3593 33.5223 21.3746C33.5301 21.3777 33.5372 21.3824 33.5432 21.3883C33.5491 21.3942 33.5539 21.4012 33.5571 21.4089C33.5603 21.4167 33.5619 21.425 33.5619 21.4334C33.5619 21.4417 33.5602 21.45 33.5569 21.4577V21.4577ZM27.8392 19.8553C27.8554 19.8619 27.8995 19.8833 27.882 19.9358L27.704 20.4227C27.6891 20.4594 27.6795 20.4813 27.6038 20.4586C27.5037 20.4271 27.3994 20.4109 27.2945 20.4104C27.2026 20.4104 27.1195 20.4223 27.046 20.4468C26.9725 20.4703 26.9058 20.5114 26.8518 20.5666C26.7799 20.6361 26.7243 20.7207 26.6891 20.8142C26.6038 21.0592 26.5709 21.3204 26.5666 21.337H27.3076C27.3702 21.337 27.3899 21.3659 27.3838 21.4118L27.2971 21.8939C27.2831 21.9639 27.2197 21.9613 27.2197 21.9613H26.4559L25.934 24.9168C25.8891 25.1819 25.8209 25.4425 25.7301 25.6955C25.6483 25.9094 25.5639 26.0656 25.4283 26.2148C25.3125 26.3483 25.1653 26.4508 25 26.5131C24.8394 26.5722 24.6443 26.6024 24.4313 26.6024C24.3298 26.6024 24.2204 26.6002 24.0914 26.5696C24.0195 26.5531 23.9486 26.5324 23.8792 26.5074C23.8508 26.4974 23.8276 26.4611 23.8442 26.4147C23.8599 26.3688 23.9973 25.993 24.0157 25.9436C24.0393 25.8841 24.0997 25.9068 24.0997 25.9068C24.1408 25.9243 24.1697 25.9357 24.2244 25.9466C24.2799 25.9576 24.3543 25.9672 24.4107 25.9672C24.5118 25.9672 24.6036 25.9549 24.6837 25.9278C24.7799 25.8967 24.8368 25.8403 24.8954 25.7651C24.9567 25.6859 25.0066 25.5787 25.0577 25.4348C25.1089 25.2891 25.1557 25.0966 25.196 24.8634L25.7157 21.9617H25.2039C25.1426 21.9617 25.1216 21.9328 25.1286 21.8865L25.2144 21.4044C25.2279 21.3344 25.2931 21.337 25.2931 21.337H25.8185L25.8469 21.1804C25.9257 20.7149 26.0819 20.361 26.3128 20.1287C26.5451 19.8947 26.8754 19.7766 27.2945 19.7766C27.4144 19.7766 27.5203 19.7844 27.6099 19.8006C27.6979 19.8172 27.7648 19.8325 27.8392 19.8553V19.8553ZM17.4816 24.8687C17.4816 24.9081 17.4545 24.9391 17.4152 24.9391H16.8005C16.7611 24.9391 16.7345 24.9076 16.7345 24.8691V19.92C16.7345 19.882 16.7616 19.8505 16.8001 19.8505H17.4152C17.4545 19.8505 17.4816 19.882 17.4816 19.9205V24.8687V24.8687Z" clip-rule="evenodd"/></g></g></svg>

<svg xmlns="http://www.w3.org/2000/svg" fill="none" aria-hidden="true" viewBox="0 0 48 48"><g fill-rule="evenodd" clip-rule="evenodd"><path fill="#00A1E0" d="M20.646 13.055a7.012 7.012 0 0 1 5.072-2.178c2.64 0 4.944 1.472 6.171 3.658a8.53 8.53 0 0 1 3.488-.741c4.763 0 8.623 3.894 8.623 8.699s-3.86 8.699-8.623 8.699c-.582 0-1.15-.058-1.699-.169a6.304 6.304 0 0 1-8.26 2.593A7.193 7.193 0 0 1 18.799 38a7.195 7.195 0 0 1-6.749-4.708 6.634 6.634 0 0 1-1.372.143C6.989 33.434 4 30.414 4 26.69a6.755 6.755 0 0 1 3.338-5.844A7.727 7.727 0 0 1 6.7 17.76c0-4.286 3.478-7.76 7.769-7.76a7.757 7.757 0 0 1 6.177 3.054Z"/><path fill="#fff" d="m9.794 24.52.162-.449c.026-.077.084-.051.107-.037.045.027.078.05.136.085a1.94 1.94 0 0 0 1.057.304c.357 0 .578-.189.578-.444v-.013c0-.277-.341-.382-.736-.503l-.087-.028c-.541-.154-1.12-.377-1.12-1.062v-.014c0-.65.525-1.103 1.275-1.103l.083-.001c.44 0 .867.128 1.175.315.029.018.056.05.04.093l-.166.45c-.03.076-.11.025-.11.025a2.367 2.367 0 0 0-1.042-.267c-.318 0-.523.169-.523.398v.014c0 .267.35.382.758.514l.07.022c.54.17 1.115.407 1.115 1.057v.013c0 .702-.51 1.139-1.33 1.139-.403 0-.789-.063-1.197-.28-.077-.044-.153-.082-.228-.137-.008-.011-.042-.025-.017-.09Zm12.012 0 .162-.449c.023-.073.092-.046.107-.037.045.028.078.05.136.085.477.301.918.304 1.058.304.355 0 .577-.189.577-.444v-.013c0-.277-.34-.382-.735-.503l-.088-.028c-.541-.154-1.12-.377-1.12-1.062v-.014c0-.65.525-1.103 1.275-1.103l.082-.001c.441 0 .868.128 1.177.315.027.018.055.05.04.093-.016.04-.152.407-.167.45-.03.076-.11.025-.11.025a2.366 2.366 0 0 0-1.042-.267c-.318 0-.523.169-.523.398v.014c0 .267.35.382.758.514l.07.022c.54.17 1.114.407 1.114 1.057v.013c0 .702-.51 1.139-1.33 1.139-.403 0-.788-.063-1.195-.28-.078-.044-.154-.082-.23-.137-.007-.011-.042-.025-.016-.09Zm8.885-2.112c.067.226.1.474.1.736s-.033.51-.1.735c-.062.218-.168.42-.311.595a1.48 1.48 0 0 1-.527.397c-.21.096-.456.144-.734.144a1.75 1.75 0 0 1-.734-.144 1.48 1.48 0 0 1-.527-.396 1.659 1.659 0 0 1-.31-.595 2.583 2.583 0 0 1-.101-.736c0-.263.033-.51.1-.736.068-.228.172-.428.311-.595.144-.17.324-.307.527-.4.21-.098.456-.147.734-.147.278 0 .525.05.734.147.21.098.387.232.527.4.14.167.244.367.31.595Zm-.685.736c0-.397-.073-.709-.22-.928-.144-.217-.362-.322-.667-.322-.304 0-.521.105-.664.322-.143.219-.216.531-.216.928 0 .396.073.71.217.93.142.22.359.327.663.327.305 0 .523-.107.668-.326.145-.22.22-.535.22-.931Zm6.31 1.15.168.465c.021.057-.028.082-.028.082-.26.1-.62.172-.97.172-.594 0-1.049-.171-1.352-.509-.302-.337-.456-.795-.456-1.363 0-.263.038-.512.112-.737a1.58 1.58 0 0 1 .884-.995c.22-.097.477-.146.764-.146.193 0 .366.011.514.033.157.025.368.082.457.116.016.006.061.028.043.081-.065.183-.11.302-.17.468-.025.07-.079.047-.079.047a2.286 2.286 0 0 0-.723-.103c-.34 0-.594.113-.76.334-.168.222-.262.514-.264.902-.001.426.106.741.295.936.188.195.452.293.783.293.135 0 .261-.008.376-.026a1.54 1.54 0 0 0 .318-.092s.064-.024.088.042Zm3.504-2.015c.149.522.071.973.068.998-.005.06-.067.06-.067.06l-2.318-.001c.015.352.1.601.27.77.167.166.433.273.793.273.55.002.786-.11.952-.17 0 0 .064-.024.088.04l.15.424c.031.071.007.096-.019.11-.145.08-.497.23-1.168.232a2.305 2.305 0 0 1-.84-.135 1.531 1.531 0 0 1-.584-.387 1.53 1.53 0 0 1-.336-.589 2.5 2.5 0 0 1-.105-.74c0-.263.034-.512.102-.74a1.69 1.69 0 0 1 .313-.602 1.52 1.52 0 0 1 .534-.407c.213-.1.476-.15.766-.15.248 0 .475.054.663.135.145.063.291.175.441.336.095.101.238.324.297.543Zm-2.306.484h1.654c-.017-.213-.059-.403-.154-.547-.145-.217-.346-.336-.65-.336-.304 0-.52.12-.663.336a1.36 1.36 0 0 0-.187.547Zm-16.263-.484c.15.522.072.973.07.998-.006.06-.068.06-.068.06l-2.318-.001c.015.352.099.601.27.77.167.166.433.273.793.273.55.002.786-.11.952-.17 0 0 .064-.024.087.04l.152.424c.03.071.006.096-.02.11-.146.08-.498.23-1.168.232a2.302 2.302 0 0 1-.84-.135 1.537 1.537 0 0 1-.584-.387 1.534 1.534 0 0 1-.336-.589 2.484 2.484 0 0 1-.105-.74c0-.263.034-.512.101-.74.063-.22.17-.425.314-.602.146-.174.328-.313.534-.407.213-.1.477-.15.765-.15.229 0 .455.046.665.135a1.421 1.421 0 0 1 .736.879Zm-2.306.484H20.6c-.018-.213-.06-.403-.154-.547-.144-.217-.346-.336-.65-.336-.304 0-.52.12-.663.336a1.36 1.36 0 0 0-.188.547Zm-4.088-.11s.183.016.382.045v-.099c0-.309-.064-.454-.19-.552-.13-.099-.323-.15-.574-.15 0 0-.564-.007-1.01.235-.02.013-.038.02-.038.02s-.056.02-.076-.038l-.164-.441c-.025-.063.02-.092.02-.092.21-.163.715-.261.715-.261a3.81 3.81 0 0 1 .622-.058c.462 0 .82.108 1.064.32.244.215.369.56.369 1.024l.001 2.12s.005.062-.053.076c0 0-.086.024-.162.042-.078.018-.357.075-.585.113a4.263 4.263 0 0 1-.704.059c-.225 0-.432-.021-.614-.063a1.279 1.279 0 0 1-.472-.205.959.959 0 0 1-.302-.362 1.2 1.2 0 0 1-.107-.53c0-.201.043-.381.125-.534.082-.152.195-.281.336-.383.147-.103.31-.179.484-.224.18-.048.372-.073.571-.073.146 0 .267.003.362.01Zm-.923 1.629c-.001 0 .208.164.68.135.332-.02.626-.083.626-.083v-1.055s-.297-.048-.63-.053c-.472-.006-.673.168-.672.168-.139.098-.207.245-.207.448 0 .13.023.231.07.302.03.047.042.065.133.138Zm19.623-2.824c-.022.063-.134.38-.175.486-.015.04-.04.068-.084.063 0 0-.134-.03-.255-.03-.084 0-.203.01-.31.043a.693.693 0 0 0-.287.172.855.855 0 0 0-.203.341 2.039 2.039 0 0 0-.077.609v1.727a.069.069 0 0 1-.02.05.072.072 0 0 1-.05.02h-.609a.072.072 0 0 1-.05-.02.073.073 0 0 1-.021-.05v-3.458c0-.039.028-.07.067-.07h.594c.039 0 .067.031.067.07v.282a1.05 1.05 0 0 1 .392-.288c.144-.066.306-.114.597-.096.152.009.35.05.39.066a.063.063 0 0 1 .034.083Zm-5.718-1.603c.016.007.06.028.043.08l-.178.488c-.015.036-.024.058-.1.036a1.047 1.047 0 0 0-.31-.049.785.785 0 0 0-.248.037.473.473 0 0 0-.194.12.675.675 0 0 0-.163.247c-.085.245-.118.506-.122.523h.74c.063 0 .083.029.077.075l-.087.482c-.014.07-.077.067-.077.067h-.764l-.522 2.956a4.559 4.559 0 0 1-.204.778c-.082.214-.166.37-.302.52a1.063 1.063 0 0 1-.428.298c-.16.06-.356.09-.569.09-.101 0-.21-.003-.34-.033a1.841 1.841 0 0 1-.212-.063c-.028-.01-.051-.046-.035-.092.016-.046.153-.422.172-.471.023-.06.084-.037.084-.037.04.017.07.029.124.04.056.01.13.02.187.02a.854.854 0 0 0 .273-.04.421.421 0 0 0 .211-.162 1.19 1.19 0 0 0 .163-.33 3.66 3.66 0 0 0 .138-.572l.52-2.901h-.512c-.061 0-.082-.03-.075-.075l.085-.483c.014-.07.08-.067.08-.067h.524l.029-.157c.079-.465.235-.819.466-1.051.232-.234.562-.352.982-.352a1.802 1.802 0 0 1 .544.078ZM17.482 24.87c0 .04-.027.07-.067.07h-.614c-.04 0-.066-.031-.066-.07v-4.95c0-.038.027-.07.065-.07h.615c.04 0 .067.032.067.07v4.949Z"/></g></svg>
